img/ico/home-advantage-free-measure-icon.svg

<svg width="60" height="60" viewBox="0 0 60 60" fill="none" xmlns="http://www.w3.org/2000/svg">
<circle cx="30" cy="30" r="30" fill="#FF5147"/>
<g clip-path="url(#clip0_667_3537)">
<g clip-path="url(#clip1_667_3537)">
<path d="M17.0117 40.4746C17.1582 41.8926 18.3535 43 19.8125 43H25.4375H44.1875C45.7402 43 47 41.7402 47 40.1875V34.5625C47 33.0098 45.7402 31.75 44.1875 31.75H41.375V36.4375C41.375 36.9531 40.9531 37.375 40.4375 37.375C39.9219 37.375 39.5 36.9531 39.5 36.4375V31.75H35.75V36.4375C35.75 36.9531 35.3281 37.375 34.8125 37.375C34.2969 37.375 33.875 36.9531 33.875 36.4375V31.75H30.125V36.4375C30.125 36.9531 29.7031 37.375 29.1875 37.375C28.6719 37.375 28.25 36.9531 28.25 36.4375V31.75H23.5625C23.0469 31.75 22.625 31.3281 22.625 30.8125C22.625 30.2969 23.0469 29.875 23.5625 29.875H28.25V26.125H23.5625C23.0469 26.125 22.625 25.7031 22.625 25.1875C22.625 24.6719 23.0469 24.25 23.5625 24.25H28.25V20.5H23.5625C23.0469 20.5 22.625 20.0781 22.625 19.5625C22.625 19.0469 23.0469 18.625 23.5625 18.625H28.25V15.8125C28.25 14.2598 26.9902 13 25.4375 13H19.8125C18.2598 13 17 14.2598 17 15.8125V34.5625V40.1875C17 40.2871 17.0059 40.3809 17.0117 40.4746Z" fill="white"/>
</g>
</g>
<defs>
<clipPath id="clip0_667_3537">
<rect width="30" height="30" fill="white" transform="translate(17 13)"/>
</clipPath>
<clipPath id="clip1_667_3537">
<rect width="30" height="30" fill="white" transform="translate(17 13)"/>
</clipPath>
</defs>
</svg>

<svg width="60" height="60" viewBox="0 0 60 60" fill="currentColor" xmlns="http://www.w3.org/2000/svg" class="svg-icon">
    <circle cx="30" cy="30" r="30" fill="currentColor" />
    <path
        d="M17.012 40.475a2.816 2.816 0 0 0 2.8 2.525h24.375A2.813 2.813 0 0 0 47 40.188v-5.626a2.813 2.813 0 0 0-2.812-2.812h-2.813v4.688a.94.94 0 0 1-.937.937.94.94 0 0 1-.938-.937V31.75h-3.75v4.688a.94.94 0 0 1-.937.937.94.94 0 0 1-.938-.937V31.75h-3.75v4.688a.94.94 0 0 1-.937.937.94.94 0 0 1-.938-.937V31.75h-4.687a.94.94 0 0 1-.938-.937.94.94 0 0 1 .938-.938h4.687v-3.75h-4.687a.94.94 0 0 1-.938-.937.94.94 0 0 1 .938-.938h4.687V20.5h-4.687a.94.94 0 0 1-.938-.937.94.94 0 0 1 .938-.938h4.687v-2.812A2.813 2.813 0 0 0 25.438 13h-5.625A2.813 2.813 0 0 0 17 15.813v24.374q.002.149.012.288"
        fill="#fff" />
</svg>
